X: 20
T: Sly Cupid.
%C: Mr. Gray
%R: reel
B: Mr. Gray "24 Country Dances for the Year 1805" p.10 #2
S: http://folkopedia.efdss.org/images/9/92/ThompsGray_24_1805.PDF  2013-12-2
Z: 2013 John Chambers <jc:trillian.mit.edu>
M: C
L: 1/8
K: C
|:\
g>c ({d}cB/c/) A3 c | AcGc d/d/d d2 |\
g>c ({d}cB/c/) AcGf |eage c/c/c c2 :|
|:\
gcec fdec | gcec d/d/d d2 |\
gede cAGe | eage c/c/c c2 :|
% - - - - - - - - - - - - - - - - - - - - - - - - -
%%begintext align
%% Cast of 2d Cu: up again, lead down the mid:
%% up again turn courners & lead outsides.
%%endtext

%%sep 1 1 500
%%sep 1 1 500
